X:2832c
T:Hej tomtegubbar, spela polska ...
T:Variation 3
R:Triolpolska i jämtstil
M:3/4
L:1/8
Q:1/4=160
K:D
A>d A>B (3B(AG)|F>G A2 ((3ABc)|(3d(ef) (3g(ag) (3f(ed)|dz/c/ [A3A3]A|!
A>d A>B (3B(AG)|F>G A2 ((3ABc)|(3d(ef) (3g(ag) (3f(ed)|[1(3(cBc) d3z:|[2(3(cBc) d3(c|!
d>)f e2 e>(c|(3d)(ef) e2 ((3edc)|(3d(ef)e2 (fd)|(3d(cB) A3A|!
A>d A>B (3B(AG)|F>G A2 ((3ABc)|(3d(ef) (3g(ag) (3f(ed)|(3(cBc) d3z|]
(:musicend:)
Variation nr 4
(:music:)
